img/rectangle-4-5.svg

<svg fill="none" height="46" viewBox="0 0 32 46" width="32" xmlns="http://www.w3.org/2000/svg"><path d="m23.4979 38.6923h-.0002l-.4986-.0644.0892.4944v.0001.0001l.0001.0004.0002.0013.0017.0107c.0017.0102.0042.0265.0072.0484.006.0439.0142.1103.0218.196.0153.1715.0283.4192.0185.7173-.0196.5985-.131 1.3876-.4909 2.1711-.3577.7785-.9635 1.5582-1.9876 2.1471-1.0277.5909-2.4987 1.0022-4.604 1.0022h-.0361-.0362-.0363-.0363-.0364-.0365-.0366-.0367-.0367-.0368-.0369-.0369-.037-.0371-.0372-.0372-.0373-.0374-.0374-.0375-.0376-.0377-.0377-.0377-.0379-.0379-.0379-.0381-.0381-.0381-.0382-.0383-.0383-.0384-.0385-.0385-.0386-.0386-.0387-.0387-.0388-.0389-.0389-.039-.039-.039-.0392-.0391-.0392-.0393-.0393-.0394-.0394-.0395-.0395-.0396-.0396-.0396-.0397-.0398-.0398-.0398-.0399-.0399-.04-.04-.04-.0401-.0401-.0402-.0402-.0402-.0403-.0403-.0403-.0404-.0404-.0404-.0405-.0405-.0406-.0406-.0406-.0406-.0407-.0407-.0407-.0408-.0407-.0408-.0409-.0408-.0409-.0409-.041-.0409-.041-.041-.0411-.041-.0411-.0411-.0411-.0411-.0411-.0412-.0412-.0412-.0412-.0412-.0413-.0412-.0413-.0413-.0413-.0413-.0413-.0413-.0414-.0413-.0414-.0413-.0414-.0414-.0414-.0414-.0414-.0414-.0414-.0414-.0414-.0414-.0415-.0414-.0414-.0414-.0415-.0414-.0414-.0414-.0414-.0414-.0414-.0414-.0414-.0414-.0414-.0414-.0414-.0413-.0414-.0413-.04138-.04133-.04131-.0413-.0413-.04128-.04126-.04125-.04124-.04122-.04121-.04119-.04117-.04116-.04114-.04112-.0411-.04108-.04106-.04105-.04101-.041-.04098-.04095-.04093-.0409-.04088-.04085-.04083-.0408-.04077-.04074-.04072-.04069-.04066-.04062-.0406-.04057-.04053-.0405-.04047-.04043-.04041-.04036-.04033-.04029-.04026-.04022-.04018-.04015-.0401-.04007-.04002-.03999-.03994-.0399-.03986-.03982-.03977-.03973-.03969-.03963-.0396-.03954-.0395-.03945-.0394-.03936-.0393-.03926-.0392-.03915-.0391-.03905-.039-.03894-.03889-.03883-.03878-.03872-.03867-.03861-.03855-.03849-.03843-.03838-.03831-.03826-.03819-.03813-.03807-.03801-.03794-.03788-.03781-.03775-.03768-.03762-.03755-.03748-.03742-.03734-.03728-.0372-.03714-.03706-.037-.03692-.03685-.03677-.0367-.03663-.03655-.03647-.0364-.03632-.03625-.03617-.03608-.03601-.03593-.03585-.03577-.03568-.03561-.03552-.03544-.03535-.03527-.03518-.0351-.03501-.03493-.03484-.03475-.03466-.03457-.03449-.03439-.0343-.03421-.03412-.03402-.03394-.03383-.03375-.03365-.03355-.03346-.03336-.03326-.03317-.03306-.03297-.03287-.03277-.03267-.03256-.03246-.03237-.03225-.03216-.03205-.03194-.03184-.03173-.03163-.03152-.03141-.03131-.03119-.03108-.03098-.03086-.03076-.03064-.03052-.03042-.0303-.03019-.03007-.02996-.02984-.02972-.02961-.02949-.02937-.02925-.02913-.02901-.0289-.02877-.02864-.02853-.0284-.02828-.02816-.02803-.0279-.02778-.02766-.02752-.0274-.02727-.02714-.02701-.02688-.02675-.02662-.02649-.02636-.02622-.02609-.02595-.02582-.02569-.02555-.02541-.02527-.02514-.025-.02486-.02473-.02458-.02444-.0243-.02416-.02401-.02388-.02373-.02358-.02344-.0233-.02315-.023-.02286-.02271-.02256-.02241-.02227-.02211-.02196-.02181-.02166-.02151-.02136-.0212-.02105-.02089-.02074-.02058-.02043-.02027-.02011-.01995-.0198-.01963-.01948-.01932-.01915-.01899-.01884-.01866-.01851-.01834-.01818-.01801-.01785-.01768-.01751-.01734-.01718-.01701-.01684-.01667-.0165-.01633-.016158-.015986-.015813-.01564-.015465-.015292-.015117-.014941-.014764-.014589-.01441-.014233-.014055-.013875-.013696-.013515-.013335-.013153-.012972-.012788-.012606-.012422-.012237-.006604v-45.012118h30.888076v.01572.020565.021075.021583.022091.022595.023098.023599.024097.024595.02509.025582.026074.026563.02705.027535.028018.028499.028979.029456.029931.030405.030876.031342.03182.03228.03274.0332.03367.03412.03457.03504.03548.03593.03638.03683.03727.03771.03815.03859.03903.03946.03989.04033.04075.04118.0416.04202.04245.04286.04328.0437.04411.04451.04493.04534.04573.04614.04655.04694.04734.04773.04812.04852.04891.04929.04968.05006.05044.05083.0512.05157.05195.05232.05269.05305.05343.05378.05415.05451.05486.05522.05558.05592.05628.05662.05697.05732.05765.058.05833.05867.05901.05933.05967.06.06032.06065.06096.06129.06161.06192.06224.06255.06287.06317.06347.06379.06408.06439.06468.06498.06528.06557.06586.06615.06644.06672.06701.06728.06757.06784.06812.06839.06867.06893.0692.06947.06973.06999.07025.07051.07076.07102.07127.07152.07177.07202.07225.0725.07274.07298.07322.07345.07368.07391.07414.07436.07459.07482.07503.07525.07547.07568.0759.07611.07631.07652.07673.07693.07713.07733.07753.07772.07791.07811.07829.07848.07867.07885.07903.07921.07939.07956.07974.07989.0801.0802.0805.0805.0808.0809.081.0812.0814.0815.0817.0818.0819.0821.0823.0824.0825.0827.0827.083.083.0832.0833.0835.0835.0837.0838.0839.084.0842.0842.0844.0845.0845.0847.0848.0848.085.0851.0851.0853.0853.0855.0855.0856.0856.0858.0858.0859.086.0861.0861.0862.0862.0864.0864.0864.0865.0865.0867.0866.0867.0868.0868.0868.0869.087.0869.087.0871.087.0871.0872.0871.0872.0872.0872.0873.0872.0873.0873.0873.0873.0873.0873.0873.0874.0873.0873.0873.0873.0873.0873.0873.0872.0873.0872.0872.0872.0871.0872.0871.087.0871.087.0869.087.0868.0869.0868.0867.0868.0866.0866.0866.0865.0864.0864.0863.0862.0862.0861.0861.086.0859.0858.0857.0857.0856.0855.0854.0854.0852.0852.085.085.0848.0848.0847.0845.0845.0843.0843.0841.084.0839.0838.0837.0836.0834.0833.0832.083.0829.0828.0826.0826.0823.0823.0821.0819.0818.0817.0815.0813.0812.081.0809.0808.0805.0804.0802.0801.0799.0797.0796.0793.0792.0791.0788.0786.0785.0783.0781.0779.0777.0775.0773.0771.0769.0767.0766.0763.076.0759.0757.0754.0753.075.0748.0746.0743.0741.0739.0737.0734.0732.073.0727.0725.0722.072.0717.0715.0713.071.0707.0705.0703.0699.0697.0695.0692.0689.0686.0684.0681.0678.0675.0673.067.0667.0664.0661.0659.0655.0653.0649.0647.0643.0641.0638.0634.0632.0628.0625.0622.0619.0616.0613.0609.0606.0603.06.0596.0594.0589.0587.0583.0579.0577.0573.0569.0566.0562.0559.0556.0552.0548.0545.0541.0538.0534.053.0526.0523.052.0515.0512.0508.0504.05.0497.0492.0489.0485.0481.0477.0473.0469.0465.0461.0457.0453.0449.0445.0441.0436.0433.0428c0 1.7418-.5043 2.9487-1.233 3.7941-.7338.8514-1.7218 1.3667-2.7362 1.6717-1.0143.305-2.0355.3936-2.8083.4045-.3852.0055-.7056-.0084-.9286-.0235-.1115-.0075-.1984-.0153-.2567-.0212-.0291-.0029-.0511-.0054-.0654-.007l-.0156-.0019-.0034-.0004z" stroke="#fff500" stroke-width=".736523"/></svg>

<svg width="32" height="46" viewBox="0 0 32 46" fill="none" xmlns="http://www.w3.org/2000/svg">
<path d="M23.4979 38.6923L23.4977 38.6923L22.9991 38.6279L23.0883 39.1223L23.0883 39.1224L23.0883 39.1225L23.0884 39.1229L23.0886 39.1242L23.0903 39.1349C23.092 39.1451 23.0945 39.1614 23.0975 39.1833C23.1035 39.2272 23.1117 39.2936 23.1193 39.3793C23.1346 39.5508 23.1476 39.7985 23.1378 40.0966C23.1182 40.6951 23.0068 41.4842 22.6469 42.2677C22.2892 43.0462 21.6834 43.8259 20.6593 44.4148C19.6316 45.0057 18.1606 45.417 16.0553 45.417H16.0192H15.983H15.9467H15.9104H15.874H15.8375H15.8009H15.7642H15.7275H15.6907H15.6538H15.6169H15.5799H15.5428H15.5056H15.4684H15.4311H15.3937H15.3563H15.3188H15.2812H15.2435H15.2058H15.1681H15.1302H15.0923H15.0544H15.0163H14.9782H14.9401H14.9019H14.8636H14.8253H14.7869H14.7484H14.7099H14.6713H14.6327H14.594H14.5553H14.5165H14.4776H14.4387H14.3997H14.3607H14.3217H14.2825H14.2434H14.2042H14.1649H14.1256H14.0862H14.0468H14.0073H13.9678H13.9282H13.8886H13.849H13.8093H13.7695H13.7297H13.6899H13.65H13.6101H13.5701H13.5301H13.4901H13.45H13.4099H13.3697H13.3295H13.2893H13.249H13.2087H13.1684H13.128H13.0876H13.0472H13.0067H12.9662H12.9256H12.885H12.8444H12.8038H12.7631H12.7224H12.6817H12.6409H12.6002H12.5594H12.5185H12.4777H12.4368H12.3959H12.3549H12.314H12.273H12.232H12.1909H12.1499H12.1088H12.0677H12.0266H11.9855H11.9444H11.9032H11.862H11.8208H11.7796H11.7384H11.6971H11.6559H11.6146H11.5733H11.532H11.4907H11.4494H11.4081H11.3667H11.3254H11.284H11.2427H11.2013H11.1599H11.1185H11.0771H11.0357H10.9943H10.9529H10.9115H10.8701H10.8287H10.7872H10.7458H10.7044H10.663H10.6215H10.5801H10.5387H10.4973H10.4559H10.4145H10.3731H10.3317H10.2903H10.2489H10.2075H10.1661H10.1247H10.0834H10.042H10.0007H9.95932H9.91799H9.87668H9.83538H9.79408H9.7528H9.71154H9.67029H9.62905H9.58783H9.54662H9.50543H9.46426H9.4231H9.38196H9.34084H9.29974H9.25866H9.2176H9.17655H9.13554H9.09454H9.05356H9.01261H8.97168H8.93078H8.8899H8.84905H8.80822H8.76742H8.72665H8.68591H8.64519H8.6045H8.56384H8.52322H8.48262H8.44205H8.40152H8.36102H8.32055H8.28012H8.23971H8.19935H8.15902H8.11873H8.07847H8.03825H7.99807H7.95792H7.91782H7.87775H7.83773H7.79774H7.7578H7.7179H7.67804H7.63822H7.59845H7.55872H7.51903H7.4794H7.4398H7.40026H7.36076H7.32131H7.28191H7.24255H7.20325H7.16399H7.12479H7.08564H7.04654H7.00749H6.96849H6.92955H6.89066H6.85183H6.81305H6.77433H6.73566H6.69705H6.6585H6.62001H6.58158H6.5432H6.50489H6.46663H6.42844H6.39031H6.35224H6.31423H6.27629H6.23841H6.2006H6.16285H6.12517H6.08755H6.05H6.01252H5.9751H5.93776H5.90048H5.86328H5.82614H5.78908H5.75208H5.71516H5.67831H5.64154H5.60484H5.56821H5.53166H5.49519H5.45879H5.42247H5.38622H5.35005H5.31397H5.27796H5.24203H5.20618H5.17041H5.13473H5.09912H5.0636H5.02816H4.99281H4.95754H4.92236H4.88726H4.85225H4.81732H4.78248H4.74773H4.71307H4.6785H4.64401H4.60962H4.57532H4.54111H4.50699H4.47297H4.43903H4.4052H4.37145H4.3378H4.30425H4.27079H4.23743H4.20417H4.171H4.13794H4.10497H4.0721H4.03933H4.00666H3.9741H3.94164H3.90927H3.87702H3.84486H3.81281H3.78087H3.74903H3.7173H3.68567H3.65415H3.62274H3.59143H3.56024H3.52916H3.49818H3.46732H3.43656H3.40592H3.3754H3.34498H3.31468H3.28449H3.25442H3.22446H3.19462H3.1649H3.13529H3.1058H3.07643H3.04718H3.01805H2.98904H2.96014H2.93137H2.90273H2.8742H2.8458H2.81752H2.78936H2.76133H2.73343H2.70565H2.67799H2.65047H2.62307H2.5958H2.56866H2.54165H2.51477H2.48802H2.4614H2.43491H2.40855H2.38233H2.35624H2.33029H2.30447H2.27878H2.25323H2.22782H2.20255H2.17741H2.15241H2.12755H2.10282H2.07824H2.0538H2.0295H2.00534H1.98133H1.95745H1.93372H1.91014H1.8867H1.8634H1.84025H1.81725H1.79439H1.77168H1.74912H1.72671H1.70444H1.68233H1.66037H1.63856H1.6169H1.59539H1.57403H1.55283H1.53178H1.51089H1.49015H1.46957H1.44914H1.42887H1.40876H1.38881H1.36901H1.34938H1.3299H1.31058H1.29143H1.27244H1.2536H1.23494H1.21643H1.19809H1.17991H1.1619H1.14405H1.12637H1.10886H1.09152H1.07434H1.05733H1.04049H1.02382H1.00732H0.99099H0.974832H0.958846H0.943033H0.927393H0.911928H0.896636H0.881519H0.866578H0.851814H0.837225H0.822815H0.808582H0.794527H0.780652H0.766956H0.753441H0.740106H0.726953H0.713981H0.701193H0.688587H0.676165H0.663928H0.657324V0.404882H31.5454V0.420602V0.441167V0.462242V0.483825V0.505916V0.528511V0.551609V0.575208V0.599305V0.6239V0.64899V0.674572V0.700646V0.727209V0.754259V0.781794V0.809812V0.838311V0.86729V0.896746V0.926677V0.957082V0.987958V1.0193V1.05112V1.0834V1.11614V1.14934V1.18301V1.21713V1.2517V1.28674V1.32222V1.35815V1.39453V1.43136V1.46863V1.50634V1.54449V1.58308V1.62211V1.66157V1.70146V1.74179V1.78254V1.82372V1.86532V1.90734V1.94979V1.99265V2.03593V2.07963V2.12374V2.16825V2.21318V2.25852V2.30425V2.35039V2.39694V2.44388V2.49122V2.53895V2.58707V2.63559V2.6845V2.73379V2.78347V2.83353V2.88397V2.9348V2.986V3.03757V3.08952V3.14184V3.19453V3.24758V3.30101V3.35479V3.40894V3.46345V3.51831V3.57353V3.62911V3.68503V3.74131V3.79793V3.8549V3.91222V3.96987V4.02787V4.0862V4.14487V4.20388V4.26321V4.32288V4.38288V4.4432V4.50385V4.56481V4.6261V4.68771V4.74963V4.81187V4.87442V4.93729V5.00046V5.06393V5.12772V5.1918V5.25619V5.32087V5.38585V5.45113V5.5167V5.58256V5.64871V5.71515V5.78187V5.84888V5.91616V5.98373V6.05157V6.11969V6.18808V6.25675V6.32568V6.39488V6.46435V6.53408V6.60407V6.67432V6.74483V6.81559V6.88661V6.95788V7.0294V7.10117V7.17319V7.24544V7.31794V7.39068V7.46366V7.53688V7.61033V7.68401V7.75792V7.83206V7.90642V7.98101V8.05583V8.13086V8.20611V8.28158V8.35726V8.43316V8.50927V8.58558V8.6621V8.73883V8.81576V8.89289V8.97022V9.04775V9.12547V9.20338V9.28149V9.35978V9.43826V9.51693V9.59578V9.67481V9.75402V9.83341V9.91297V9.99271V10.0726V10.1527V10.2329V10.3134V10.3939V10.4747V10.5556V10.6366V10.7178V10.7992V10.8807V10.9624V11.0442V11.1261V11.2082V11.2905V11.3729V11.4554V11.5381V11.6208V11.7038V11.7868V11.87V11.9533V12.0368V12.1203V12.204V12.2878V12.3717V12.4557V12.5399V12.6241V12.7085V12.793V12.8775V12.9622V13.047V13.1318V13.2168V13.3019V13.387V13.4723V13.5576V13.6431V13.7286V13.8142V13.8998V13.9856V14.0714V14.1573V14.2433V14.3294V14.4155V14.5017V14.5879V14.6743V14.7607V14.8471V14.9336V15.0201V15.1068V15.1934V15.2801V15.3669V15.4537V15.5405V15.6274V15.7144V15.8013V15.8883V15.9754V16.0624V16.1495V16.2367V16.3238V16.411V16.4982V16.5854V16.6727V16.7599V16.8472V16.9345V17.0218V17.1091V17.1964V17.2837V17.371V17.4584V17.5457V17.633V17.7203V17.8076V17.8949V17.9822V18.0695V18.1567V18.244V18.3312V18.4184V18.5056V18.5927V18.6799V18.767V18.854V18.9411V19.0281V19.115V19.202V19.2888V19.3757V19.4625V19.5492V19.636V19.7226V19.8092V19.8958V19.9823V20.0687V20.1551V20.2414V20.3276V20.4138V20.4999V20.586V20.672V20.7579V20.8437V20.9294V21.0151V21.1007V21.1862V21.2716V21.357V21.4422V21.5274V21.6124V21.6974V21.7822V21.867V21.9517V22.0362V22.1207V22.205V22.2893V22.3734V22.4574V22.5413V22.6251V22.7088V22.7924V22.8758V22.9591V23.0423V23.1253V23.2082V23.291V23.3736V23.4562V23.5385V23.6208V23.7029V23.7848V23.8666V23.9483V24.0298V24.1111V24.1923V24.2733V24.3542V24.435V24.5155V24.5959V24.6761V24.7562V24.8361V24.9158V24.9954V25.0747V25.1539V25.233V25.3118V25.3904V25.4689V25.5472V25.6253V25.7032V25.7809V25.8584V25.9357V26.0128V26.0897V26.1664V26.243V26.3193V26.3953V26.4712V26.5469V26.6223V26.6976V26.7726V26.8474V26.922V26.9963V27.0704V27.1443V27.218V27.2914V27.3646V27.4376V27.5103V27.5828V27.655V27.727V27.7987V27.8702V27.9415V28.0125V28.0832V28.1537V28.224V28.2939V28.3636V28.4331V28.5023V28.5712V28.6398V28.7082V28.7763V28.8441V28.9116V28.9789V29.0459V29.1126V29.179V29.2451V29.311V29.3765V29.4418V29.5067V29.5714V29.6357V29.6998V29.7636V29.827V29.8902V29.953V30.0155V30.0777V30.1396V30.2012V30.2625V30.3234V30.384V30.4443V30.5043V30.5639V30.6233V30.6822V30.7409V30.7992V30.8571V30.9148V30.9721V31.029V31.0856V31.1418V31.1977V31.2533V31.3085V31.3633V31.4178V31.4719V31.5257V31.5791V31.6321V31.6847V31.737V31.789V31.8405V31.8917V31.9425V31.9929V32.0429V32.0926V32.1418V32.1907V32.2392V32.2873V32.335V32.3823V32.4292V32.4757V32.5218V32.5675V32.6128V32.6577V32.7022V32.7463V32.7899V32.8332V32.876C31.5454 34.6178 31.0411 35.8247 30.3124 36.6701C29.5786 37.5215 28.5906 38.0368 27.5762 38.3418C26.5619 38.6468 25.5407 38.7354 24.7679 38.7463C24.3827 38.7518 24.0623 38.7379 23.8393 38.7228C23.7278 38.7153 23.6409 38.7075 23.5826 38.7016C23.5535 38.6987 23.5315 38.6962 23.5172 38.6946L23.5016 38.6927L23.4982 38.6923L23.4979 38.6923Z" stroke="#FFF500" stroke-width="0.736523"/>
</svg>
